COLOR/action 16/16/multisystem-img.svg

<svg height="16" width="16" xmlns="http://www.w3.org/2000/svg"><path d="m11.387467 14.999664c3.275632 0 3.628089-.288383 3.612032-3.101679v-3.8981474-3.8981378c.01602-2.8133046-.3364-3.1016881-3.612032-3.1016881h-6.7754273c-3.2756412 0-3.6120397.2883461-3.6120397 3.1016881v3.8981378 3.8981474c0 2.813333.336408 3.101679 3.6120397 3.101679z" fill="#999" stroke-width=".937817"/><rect fill="#fff" height="6.533171" opacity=".97" ry=".278922" stroke-width=".937817" width="9.423458" x="3.28843" y="2.400182"/><path d="m11.769542 14.996304v-3.26302c0-.93331-.594121-.93331-.942346-.93331h-5.6540743c-.3483192 0-.9423458 0-.9423458.93331v3.26302c6.7635261-.000167.206713.0084 7.5387661 0zm-6.5964203-.463089v-2.799931h2.8270375v2.799931z" opacity=".5" stroke-width=".7224"/><g stroke-width=".937817"><path d="m11.389169 15c3.275641 0 3.611328-.28822 3.611328-3.101562v-.5c0 2.813342-.335687 3.101562-3.611328 3.101562h-6.7753908c-3.2756319 0-3.62930093-.288258-3.6132809-3.101562v.5c-.01602 2.813304.337649 3.101562 3.6132809 3.101562z" opacity=".2"/><path d="m4.6113281.9999997c-3.2756412 0-3.6113281.2882205-3.6113281 3.1015625v.5c0-2.813342.3356869-3.1015625 3.6113281-3.1015625h6.7753909c3.275632 0 3.629301.2882579 3.613281 3.1015625v-.5c.01602-2.8133046-.337649-3.1015625-3.613281-3.1015625z" fill="#fff" opacity=".3"/></g></svg>

<?xml version="1.0" encoding="UTF-8" standalone="no"?>
<svg
   xmlns:dc="http://purl.org/dc/elements/1.1/"
   xmlns:cc="http://creativecommons.org/ns#"
   xmlns:rdf="http://www.w3.org/1999/02/22-rdf-syntax-ns#"
   xmlns:svg="http://www.w3.org/2000/svg"
   xmlns="http://www.w3.org/2000/svg"
   xmlns:sodipodi="http://sodipodi.sourceforge.net/DTD/sodipodi-0.dtd"
   xmlns:inkscape="http://www.inkscape.org/namespaces/inkscape"
   height="16"
   width="16"
   version="1.1"
   id="svg33"
   sodipodi:docname="multisystem-img.svg"
   inkscape:version="0.92.4 (5da689c313, 2019-01-14)">
  <metadata
     id="metadata39">
    <rdf:RDF>
      <cc:Work
         rdf:about="">
        <dc:format>image/svg+xml</dc:format>
        <dc:type
           rdf:resource="http://purl.org/dc/dcmitype/StillImage" />
      </cc:Work>
    </rdf:RDF>
  </metadata>
  <defs
     id="defs37" />
  <sodipodi:namedview
     pagecolor="#ffffff"
     bordercolor="#666666"
     borderopacity="1"
     objecttolerance="10"
     gridtolerance="10"
     guidetolerance="10"
     inkscape:pageopacity="0"
     inkscape:pageshadow="2"
     inkscape:window-width="1920"
     inkscape:window-height="1016"
     id="namedview35"
     showgrid="false"
     inkscape:zoom="14.75"
     inkscape:cx="8"
     inkscape:cy="8"
     inkscape:window-x="0"
     inkscape:window-y="27"
     inkscape:window-maximized="1"
     inkscape:current-layer="svg33" />
  <linearGradient
     id="a"
     gradientUnits="userSpaceOnUse"
     x1="328"
     x2="328"
     y1="237"
     y2="251">
    <stop
       offset="0"
       stop-color="#fff"
       id="stop2" />
    <stop
       offset=".125"
       stop-color="#fff"
       stop-opacity=".098039"
       id="stop4" />
    <stop
       offset=".92500001"
       stop-color="#fff"
       stop-opacity=".098039"
       id="stop6" />
    <stop
       offset="1"
       stop-color="#fff"
       stop-opacity=".498039"
       id="stop8" />
  </linearGradient>
  <clipPath
     id="b">
    <path
       d="m325.09646 237c-2.80769 0-3.10979.28839-3.09603 3.10176v3.89824 3.89824c-.0138 2.81337.28834 3.10176 3.09603 3.10176h5.8075c2.8077 0 3.09604-.28835 3.09604-3.10176v-3.89824-3.89824c0-2.8134-.28835-3.10176-3.09604-3.10176z"
       id="path11" />
  </clipPath>
  <linearGradient
     id="c"
     gradientTransform="matrix(0 -.87499989 .87499989 0 -205.49969 295.00024)"
     gradientUnits="userSpaceOnUse"
     x1="336.00009"
     x2="320.00009"
     y1="236.00017"
     y2="252.00017">
    <stop
       offset="0"
       stop-color="#999"
       id="stop14" />
    <stop
       offset=".61328125"
       stop-color="#b7b7b7"
       id="stop16" />
    <stop
       offset="1"
       stop-color="#dbdbdb"
       id="stop18" />
  </linearGradient>
  <path
     d="m 11.387467,14.999664 c 3.275632,0 3.628089,-0.288383 3.612032,-3.101679 V 7.9998376 4.1016998 c 0.01602,-2.8133046 -0.3364,-3.1016881 -3.612032,-3.1016881 H 4.6120397 C 1.3363985,1.0000117 1,1.2883578 1,4.1016998 v 3.8981378 3.8981474 c 0,2.813333 0.336408,3.101679 3.6120397,3.101679 z"
     id="path23"
     style="fill:#999999;fill-opacity:1;stroke-width:0.93781716"
     inkscape:connector-curvature="0" />
  <rect
     height="6.5331707"
     ry="0.27892217"
     width="9.4234581"
     x="3.2884302"
     y="2.400182"
     id="rect29"
     style="opacity:0.97000002;fill:#ffffff;stroke-width:0.93781716" />
  <path
     d="m 11.769542,14.996304 v -3.26302 c 0,-0.93331 -0.594121,-0.93331 -0.942346,-0.93331 H 5.1731217 c -0.3483192,0 -0.9423458,0 -0.9423458,0.93331 v 3.26302 c 6.7635261,-1.67e-4 0.206713,0.0084 7.5387661,0 z M 5.1731217,14.533215 v -2.799931 h 2.8270375 v 2.799931 z"
     id="path31"
     style="opacity:0.5;fill:#000000;fill-opacity:1;stroke-width:0.72240007"
     inkscape:connector-curvature="0" />
  <path
     id="path838"
     d="m 11.389169,15 c 3.275641,0 3.611328,-0.28822 3.611328,-3.101562 v -0.5 C 15.000497,14.21178 14.66481,14.5 11.389169,14.5 H 4.6137782 c -3.2756319,0 -3.62930093,-0.288258 -3.6132809,-3.101562 v 0.5 C 0.9844773,14.711742 1.3381463,15 4.6137782,15 Z"
     style="opacity:0.2;fill:#000000;fill-opacity:1;stroke-width:0.93781716"
     inkscape:connector-curvature="0" />
  <path
     inkscape:connector-curvature="0"
     style="opacity:0.3;fill:#ffffff;fill-opacity:1;stroke-width:0.93781716"
     d="M 4.6113281,0.9999997 C 1.3356869,0.9999997 1,1.2882202 1,4.1015622 v 0.5 C 1,1.7882202 1.3356869,1.4999997 4.6113281,1.4999997 h 6.7753909 c 3.275632,0 3.629301,0.2882579 3.613281,3.1015625 v -0.5 C 15.01602,1.2882576 14.662351,0.9999997 11.386719,0.9999997 Z"
     id="path833" />
</svg>
